X: 100402
T: MISS BAKER'S HORNPIPE
R: hornpipe, reel
B: K\"ohler's Violin Repository, v.3, 1885 p.262 #1
F: http://www.archive.org/details/klersviolinrepos03rugg
Z: 2012 John Chambers <jc:trillian.mit.edu>
M: C|
L: 1/8
K: F
(uc>B) |\
A2F2 FAGF | EGB2 (Bd)cB | Acde fcdB | AGFE FdcB |\
A2F2 FAGF | EGB2 (Bd)cB | Acde fcdB | A2F2 F2 :|
|: ((3ucde) |\
fcAc fagf | gece gbag | afge fdgf | e2c2 c2(fe) |\
dcBA B2(ba) | gfed c2(dc) | BAGF EdcB | A2F2 F2 :|

%%sep 2 1 500

